img/new-main/gift.svg

<svg width="157" height="140" viewBox="0 0 157 140" fill="none" xmlns="http://www.w3.org/2000/svg">
<path d="M146.932 52.7103C144.265 98.3398 141.121 92.2749 138.454 137.904C98.6989 137.904 57.2608 137.555 15.8546 138.603C13.8224 91.1635 12.9651 103.103 10.8059 52.8691L146.932 52.7103Z" fill="white"/>
<path d="M15.8546 139.81C15.5485 139.81 15.2545 139.69 15.035 139.477C14.8156 139.263 14.688 138.972 14.6798 138.666C13.6637 115.296 12.9652 106.564 12.2349 97.3872C11.5046 88.2105 10.7107 78.3352 9.63111 52.9326C9.61809 52.7752 9.63981 52.6168 9.69468 52.4687C9.74954 52.3205 9.83614 52.1862 9.94857 52.0752C10.0564 51.9547 10.1886 51.8584 10.3364 51.7927C10.4842 51.727 10.6442 51.6935 10.806 51.6942H146.932C147.094 51.6935 147.254 51.727 147.402 51.7927C147.55 51.8584 147.682 51.9547 147.79 52.0752C147.904 52.1911 147.992 52.3308 148.047 52.4844C148.102 52.6381 148.123 52.8019 148.107 52.9643C147.426 67.2524 146.016 81.4963 143.884 95.6407C141.731 109.719 140.322 123.9 139.661 138.127C139.644 138.433 139.509 138.72 139.283 138.928C139.058 139.135 138.76 139.247 138.454 139.238H116.894C83.9336 139.238 49.8624 139.238 15.8864 140L15.8546 139.81ZM12.0444 53.8217C13.124 78.4305 13.8861 87.8612 14.6164 97.0061C15.3467 106.151 16.0135 114.788 16.9979 137.301C50.5928 136.444 84.3147 136.507 116.894 136.571H137.343C138.031 122.686 139.42 108.845 141.502 95.1009C143.587 81.4205 144.975 67.643 145.662 53.8217H12.0444Z" fill="#282828"/>
<path d="M155.188 42.5493C155.233 50.3606 154.777 58.1667 153.822 65.9197C104.319 66.8722 52.7834 65.9197 2.83556 65.9197C1.52142 58.2232 0.94731 50.4187 1.12095 42.6128L155.188 42.5493Z" fill="#F9B974"/>
<path d="M104.573 67.5074C87.8712 67.5074 71.2007 67.5074 54.7843 67.3168C37.6693 67.3168 19.8558 67.0945 2.83603 67.0945C2.56771 67.0997 2.30605 67.0102 2.09705 66.8419C1.88805 66.6735 1.7451 66.437 1.69296 66.1737C0.480406 59.6406 -0.0834029 53.0037 0.00994866 46.3597C0.00994866 45.1213 0.00994866 43.8829 0.00994866 42.6445C-0.00307037 42.4871 0.018652 42.3288 0.0735172 42.1806C0.128382 42.0325 0.21517 41.8982 0.327597 41.7872C0.557475 41.5644 0.864616 41.4392 1.1848 41.438H74.5983H155.252C155.409 41.4379 155.564 41.4693 155.709 41.5303C155.853 41.5913 155.984 41.6807 156.094 41.7932C156.203 41.9057 156.289 42.039 156.346 42.1852C156.404 42.3314 156.431 42.4876 156.426 42.6445C156.489 50.5091 156.033 58.3692 155.061 66.1737C155.03 66.4544 154.896 66.7135 154.685 66.9011C154.473 67.0887 154.2 67.1916 153.918 67.1898C137.787 67.4121 121.117 67.5074 104.573 67.5074ZM5.31288 64.713C21.7293 64.713 38.5266 64.7131 54.7843 64.9353C87.1409 65.1259 120.609 65.3481 152.775 64.7448C153.587 57.7675 153.99 50.7486 153.981 43.7242H74.5983H2.35966C2.35966 44.5498 2.35966 45.4071 2.35966 46.2327C2.28292 52.3902 2.75046 58.5425 3.75681 64.6178L5.31288 64.713Z" fill="#282828"/>
<path d="M82.1235 138.19C81.8091 138.182 81.5104 138.051 81.2909 137.826C81.0715 137.6 80.9486 137.298 80.9487 136.984C81.2662 92.9417 80.9488 87.4484 79.4564 51.5355C79.2658 47.1218 79.0435 42.2635 78.8213 36.802C78.8082 36.6467 78.8271 36.4904 78.8767 36.3427C78.9263 36.1949 79.0056 36.0589 79.1096 35.9429C79.2137 35.8269 79.3404 35.7334 79.4819 35.6682C79.6235 35.603 79.777 35.5674 79.9327 35.5636C80.2477 35.5461 80.557 35.6525 80.7944 35.8603C81.0318 36.068 81.1783 36.3605 81.2028 36.675C81.425 42.1366 81.6473 47.0265 81.8379 51.4402C83.4255 87.3849 83.6477 92.91 83.3302 137.015C83.3219 137.33 83.1912 137.629 82.9658 137.848C82.7404 138.067 82.4381 138.19 82.1235 138.19Z" fill="#282828"/>
<path d="M79.8691 43.0257C79.7006 43.021 79.5347 42.982 79.3818 42.911C79.229 42.84 79.0922 42.7386 78.9799 42.6129C78.8045 42.3976 78.7087 42.1284 78.7087 41.8508C78.7087 41.5731 78.8045 41.304 78.9799 41.0887C82.7398 35.9661 85.9338 30.4511 88.5059 24.6405C91.5017 17.6322 95.5493 11.122 100.509 5.33452C101.782 3.72764 103.391 2.41786 105.223 1.49653C107.054 0.575192 109.065 0.0645 111.114 0C117.02 0.317533 122.26 7.23972 122.577 15.1145C122.669 18.6056 122.001 22.075 120.619 25.2824C119.238 28.4898 117.175 31.3586 114.575 33.6902C109.945 37.5239 104.196 39.7523 98.1907 40.0409C96.5396 40.1996 95.0152 40.2631 93.2371 40.3584C88.877 40.172 84.5322 40.9866 80.5358 42.7399C80.4497 42.8302 80.3463 42.9021 80.2317 42.9512C80.117 43.0003 79.9938 43.0257 79.8691 43.0257ZM110.606 2.38149C107.307 2.75743 104.287 4.41014 102.191 6.98571C97.4143 12.5989 93.5173 18.905 90.6335 25.6884C88.477 30.36 86.0051 34.8794 83.2349 39.2152C86.475 38.4782 89.7872 38.1054 93.1101 38.1039C94.6978 38.1039 96.2855 37.9451 97.9367 37.8181C103.458 37.5185 108.736 35.4475 112.988 31.912C115.321 29.8131 117.171 27.2327 118.41 24.3491C119.649 21.4654 120.248 18.3472 120.164 15.2098C119.91 8.63686 115.591 2.50849 110.955 2.50849L110.606 2.38149Z" fill="#282828"/>
<path d="M70.8197 43.7876C67.1437 43.7853 63.4797 43.3699 59.8965 42.5492C56.2154 41.9059 52.6994 40.5356 49.5537 38.5184C46.4079 36.5012 43.6956 33.8775 41.575 30.8005C37.3519 24.2593 36.05 13.0505 41.3527 6.35052C42.9349 4.14155 45.2961 2.61492 47.9598 2.07864C50.6235 1.54236 53.3915 2.03635 55.7053 3.46097C58.4062 5.48291 60.6555 8.04598 62.3098 10.9865C65.0088 15.1779 67.5491 19.6869 70.0576 24.0053C73.2329 29.7844 76.7577 35.754 80.5046 41.1203C80.6053 41.2882 80.6584 41.4803 80.6584 41.676C80.6584 41.8718 80.6053 42.0639 80.5046 42.2317C80.4397 42.4188 80.3258 42.5851 80.1751 42.7135C80.0244 42.8419 79.8422 42.9277 79.6472 42.962C76.7348 43.4968 73.7807 43.7731 70.8197 43.7876ZM50.2118 4.22306C48.8522 4.25567 47.5177 4.59534 46.308 5.21671C45.0982 5.83808 44.0446 6.72502 43.2261 7.81115C38.7171 13.5267 39.7969 23.6878 43.5755 29.4986C45.5305 32.3126 48.0247 34.7104 50.9136 36.5527C53.8026 38.3951 57.0287 39.6455 60.4047 40.2312C66.0104 41.4926 71.798 41.7293 77.488 40.9298C74.0904 35.8811 71.1373 30.4512 67.962 25.0532C65.517 20.7665 62.9768 16.2893 60.2778 12.1296C58.8025 9.48836 56.8034 7.17608 54.4033 5.3344C53.1383 4.5774 51.6857 4.19225 50.2118 4.22306Z" fill="#282828"/>
<path d="M63.3262 59.5372C63.0337 59.5499 62.747 59.4529 62.5223 59.2653C62.2975 59.0777 62.1509 58.8129 62.1112 58.5229C62.0715 58.2328 62.1415 57.9384 62.3075 57.6973C62.4735 57.4561 62.7236 57.2857 63.0087 57.2192C66.5759 56.0567 69.7083 53.843 71.995 50.8686C73.2333 49.3444 74.2811 47.6932 75.5195 45.915C76.7579 44.1368 78.2185 41.8824 80.0284 39.5644C80.1573 39.4233 80.3143 39.3109 80.4893 39.2343C80.6643 39.1578 80.8535 39.1187 81.0446 39.1198C81.2369 39.1343 81.4232 39.1936 81.5886 39.2928C81.754 39.392 81.8938 39.5285 81.9971 39.6914C85.3947 45.2482 89.6496 52.1705 95.8733 55.3775C96.9482 56.0605 98.2341 56.3312 99.4932 56.1396C99.6432 56.0916 99.8016 56.0752 99.9583 56.0913C100.115 56.1074 100.267 56.1557 100.404 56.2332C100.541 56.3108 100.661 56.4158 100.755 56.5417C100.85 56.6677 100.918 56.8119 100.954 56.9652C100.997 57.1153 101.01 57.2725 100.992 57.4277C100.974 57.5829 100.925 57.7329 100.848 57.8689C100.771 58.0049 100.668 58.1242 100.544 58.2199C100.421 58.3155 100.279 58.3855 100.128 58.4258C98.2937 58.8008 96.3852 58.46 94.7938 57.4732C88.4431 54.2979 84.2834 47.9473 80.8858 42.4222C79.5839 44.1686 78.4726 45.788 77.4882 47.2804C76.5039 48.7728 75.1384 50.8051 73.8365 52.3927C71.2659 55.7915 67.705 58.3097 63.6438 59.6007L63.3262 59.5372Z" fill="#282828"/>
<g opacity="0.13">
<path d="M142.582 66.3008C140.409 66.6472 138.209 66.7961 136.009 66.7454C131.182 66.9994 126.483 66.9994 121.529 66.7454C117.941 66.7454 114.353 66.9676 110.797 66.7454C108.32 66.5548 105.811 66.5231 103.335 66.3961H104.065C102.509 66.1681 100.933 66.1148 99.3655 66.2373C98.6987 66.2373 97.6191 66.2373 98.9209 66.2373C96.0314 65.888 93.1419 66.0468 90.2524 65.9833C83.2984 65.9833 76.376 65.4117 69.4538 65.3164C62.5316 65.2212 54.7521 65.3164 47.2266 65.3164C40.8759 65.3164 34.5253 65.5705 28.1746 65.3164C24.4277 65.3164 20.6809 64.9989 16.9022 65.0942C15.2511 65.2847 13.2824 64.8084 12.0123 66.015C11.6276 66.4 11.3681 66.8922 11.2681 67.4272C11.1681 67.9622 11.2322 68.515 11.452 69.0129C11.6718 69.5108 12.0369 69.9306 12.4995 70.2173C12.9622 70.504 13.5009 70.6441 14.0446 70.6192C27.3492 70.3017 40.6854 70.3335 53.99 70.8415C59.8326 71.0003 65.6435 70.4287 71.5179 70.8415C79.5197 70.8415 87.3945 71.8576 95.5233 71.7306C100.064 71.2861 98.6987 71.7306 103.335 71.3813C105.938 71.5401 108.51 71.5401 111.114 71.5718C114.639 71.7941 118.163 71.9847 121.72 71.9529C124.228 71.9529 129.785 71.5718 134.421 71.413C137.406 71.413 143.153 71.413 143.471 71.413C144.049 71.4331 144.621 71.2809 145.113 70.9756C145.604 70.6703 145.994 70.2258 146.233 69.6984C147.313 67.7932 144.9 65.6022 142.582 66.3008Z" fill="#282828"/>
</g>
</svg>

<svg width="157" height="140" fill="none" xmlns="http://www.w3.org/2000/svg"><path d="M146.932 52.71c-2.667 45.63-5.811 39.565-8.478 85.194-39.755 0-81.193-.349-122.6.699-2.032-47.44-2.889-35.5-5.048-85.734l136.126-.159z" fill="#fff"/><path d="M15.855 139.81a1.178 1.178 0 01-1.175-1.144c-1.016-23.37-1.715-32.102-2.445-41.279-.73-9.177-1.524-19.052-2.604-44.454a1.08 1.08 0 01.318-.858 1.144 1.144 0 01.857-.38h136.126a1.145 1.145 0 01.858.38 1.125 1.125 0 01.317.89 420.709 420.709 0 01-4.223 42.676 405.539 405.539 0 00-4.223 42.486 1.176 1.176 0 01-1.207 1.111h-21.56c-32.96 0-67.032 0-101.008.762l-.031-.19zm-3.81-85.988c1.079 24.608 1.841 34.04 2.571 43.184.73 9.145 1.398 17.782 2.382 40.295 33.595-.857 67.317-.794 99.896-.73h20.449a413.525 413.525 0 014.159-41.47 408.61 408.61 0 004.16-41.28H12.044z" fill="#282828"/><path d="M155.188 42.55a182.559 182.559 0 01-1.366 23.37c-49.503.952-101.039 0-150.986 0A122.314 122.314 0 011.12 42.613l154.067-.064z" fill="#F9B974"/><path d="M104.573 67.507c-16.702 0-33.372 0-49.789-.19-17.115 0-34.928-.222-51.948-.222a1.143 1.143 0 01-1.143-.921A100.817 100.817 0 01.01 46.36v-3.715a1.08 1.08 0 01.318-.858c.23-.223.537-.348.857-.349h154.067a1.175 1.175 0 011.174 1.206 178.794 178.794 0 01-1.365 23.53 1.14 1.14 0 01-1.143 1.016c-16.131.222-32.801.317-49.345.317zm-99.26-2.794c16.416 0 33.214 0 49.471.222 32.357.19 65.825.413 97.991-.19a179.85 179.85 0 001.206-21.02H2.36v2.508c-.077 6.157.39 12.31 1.397 18.385l1.556.095z" fill="#282828"/><path d="M82.124 138.19a1.207 1.207 0 01-1.175-1.206c.317-44.042 0-49.536-1.493-85.449-.19-4.413-.413-9.271-.635-14.733a1.141 1.141 0 011.112-1.238 1.207 1.207 0 011.27 1.111c.222 5.462.444 10.352.635 14.765 1.588 35.945 1.81 41.47 1.492 85.575a1.205 1.205 0 01-1.206 1.175z" fill="#282828"/><path d="M79.87 43.026a1.24 1.24 0 01-.89-.413 1.207 1.207 0 010-1.524 87.991 87.991 0 009.526-16.448 74.929 74.929 0 0112.003-19.306A14.09 14.09 0 01111.114 0c5.906.318 11.146 7.24 11.463 15.114a24.091 24.091 0 01-8.002 18.576 27.78 27.78 0 01-16.384 6.35c-1.651.16-3.176.223-4.954.318a28.576 28.576 0 00-12.701 2.382.922.922 0 01-.667.286zM110.605 2.38a12.703 12.703 0 00-8.415 4.605 72.818 72.818 0 00-11.558 18.702 113.399 113.399 0 01-7.398 13.527 44.614 44.614 0 019.875-1.111c1.588 0 3.175-.159 4.827-.286a25.72 25.72 0 0015.051-5.906 21.692 21.692 0 007.176-16.702c-.254-6.573-4.573-12.702-9.209-12.702l-.349-.127z" fill="#282828"/><path d="M70.82 43.788a49.063 49.063 0 01-10.923-1.239 28.132 28.132 0 01-18.322-11.748c-4.223-6.542-5.525-17.75-.222-24.45a10.733 10.733 0 0114.352-2.89 24.259 24.259 0 016.605 7.526c2.699 4.19 5.24 8.7 7.748 13.018 3.175 5.78 6.7 11.749 10.447 17.115a1.08 1.08 0 010 1.112 1.112 1.112 0 01-.858.73 50.24 50.24 0 01-8.827.826zM50.212 4.223a9.017 9.017 0 00-6.986 3.588c-4.509 5.716-3.43 15.877.35 21.688A25.878 25.878 0 0060.404 40.23a47.629 47.629 0 0017.083.699c-3.398-5.049-6.35-10.479-9.526-15.877-2.445-4.287-4.985-8.764-7.684-12.923a22.229 22.229 0 00-5.875-6.796 7.843 7.843 0 00-4.191-1.11z" fill="#282828"/><path d="M63.326 59.537a1.175 1.175 0 01-.317-2.318 18.607 18.607 0 008.986-6.35c1.238-1.525 2.286-3.176 3.524-4.954 1.239-1.778 2.7-4.033 4.51-6.35a1.366 1.366 0 011.016-.445 1.239 1.239 0 01.952.571c3.398 5.557 7.653 12.48 13.876 15.686a5.271 5.271 0 003.62.763 1.143 1.143 0 011.461.825 1.184 1.184 0 01-.106.904 1.173 1.173 0 01-.72.557 7.335 7.335 0 01-5.334-.953c-6.35-3.175-10.51-9.526-13.908-15.05a101.986 101.986 0 00-3.398 4.857c-.984 1.493-2.35 3.525-3.651 5.113A20.607 20.607 0 0163.644 59.6l-.318-.064z" fill="#282828"/><path d="M142.582 66.3a36.423 36.423 0 01-6.573.445c-4.827.254-9.526.254-14.48 0-3.588 0-7.176.223-10.732 0-2.477-.19-4.986-.222-7.462-.349h.73a21.082 21.082 0 00-4.7-.159h-.444c-2.89-.349-5.78-.19-8.669-.254-6.954 0-13.876-.571-20.798-.667-6.922-.095-14.702 0-22.227 0-6.351 0-12.702.254-19.052 0-3.747 0-7.494-.317-11.273-.222-1.65.19-3.62-.286-4.89.921a2.7 2.7 0 002.033 4.604c13.304-.317 26.64-.285 39.945.222 5.843.16 11.654-.412 17.528 0 8.002 0 15.876 1.017 24.005.89 4.541-.445 3.176 0 7.812-.35 2.603.16 5.175.16 7.779.19 3.525.223 7.049.414 10.606.382 2.508 0 8.065-.381 12.701-.54h9.05a2.923 2.923 0 002.762-1.715c1.08-1.905-1.333-4.096-3.651-3.397z" fill="#282828" opacity=".13"/></svg>
